docs/images/icons/arrow-up.svg

<svg width="34.06" height="32.544" fill="none" xmlns="http://www.w3.org/2000/svg"><path d="m5.63 15.6 1.59 1.68 8.66-7.92.01 17.93 2.28.13-.01-17.93 8.65 8.92 1.61-1.47c-4.17-4.31-7.41-7.64-11.4-11.76L5.63 15.6Z" fill="#FFF" fill-rule="evenodd"/></svg>

<svg width="34.060059" height="32.543945" viewBox="0 0 34.0601 32.5439" fill="none" xmlns="http://www.w3.org/2000/svg" xmlns:xlink="http://www.w3.org/1999/xlink">
	<desc>
			Created with Pixso.
	</desc>
	<defs/>
	<path id="arrow_right-[#349]" d="M5.63 15.6L7.22 17.28L15.88 9.36L15.89 27.29L18.17 27.42L18.16 9.49L26.81 18.41L28.42 16.94C24.25 12.63 21.01 9.3 17.02 5.18L5.63 15.6Z" fill="#FFFFFF" fill-opacity="1.000000" fill-rule="evenodd"/>
</svg>
